X:1
C: T. A. Walmisley
M: none
L:1/2
%%staves [(S A) (T B)]
K:Bb
V:S clef=treble
F2 | B B | d2 || B2 | B F | F F | F2 || F2 | d c | =B2 || c2 | c d | e d/2 c/2 | d2 |]
V:A clef=treble
D2 | D D | D2 || D2 | F D | E D/2 C/2 | D2 || D2 | F ^F | G2 || =E2 | F F | F F | F2 |]
V:T clef=bass octave=-1
B2 | B B | A2 || B2 | d B | c B/2 A/2 | B2 || B2 | B c | d2 || c2 | A B | c B/2 A/2 | B2 |]
V:B clef=bass octave=-1
B2 | G G | ^F2 || G2 | F F | F F | B,2 || B,2 | B A | G2 || C2 | F F | F F | B,2 |]
